svg/anything-llm-light.svg

<svg xmlns="http://www.w3.org/2000/svg" viewBox="0 0 245 245"><path fill="none" stroke="#919393" stroke-width="2" d="M187.03 159h-25.54a1.24 1.24 0 0 1-1.01-.52l-12.59-17.67c-2.11-2.95-6.09-2.8-8.4-.14-3.06 3.5-5.84 6.89-3.05 10.75q5.78 7.97 11.78 16.56 4.52 6.49 12.27 6.59 13.45.16 28.3.03c7.85-.08 14.45-5.88 14.44-13.97q-.07-36.79-.03-76.89c.01-5.33-3.23-10.18-8.03-12.39q-3.27-1.5-8.94-1.43-12.29.16-24.86.02c-4.98-.05-9.27 1.69-12.29 5.55q-32.05 40.97-64.63 82.6a2.37 2.35-70.9 0 1-1.86.91H57.21q-.56 0-.56-.55l.01-72.5q0-.64.64-.64H83a.8.79 71 0 1 .63.31q6.88 8.98 13.98 19.09c1.86 2.65 5.46 3.5 7.87 1.12q2.12-2.11 4.22-5.16c.9-1.31.68-2.88.58-4.37q-.05-.68-.46-1.23-6.79-9.13-12.91-17.73c-3.28-4.61-7.25-7.36-12.73-7.34q-12.58.05-27.62-.04c-6.19-.03-11.12 2.65-13.93 8.18q-1.44 2.85-1.38 9.13.3 33.6.02 70.84-.04 4.66 1.05 7.46 2 5.18 7.05 7.65 3.26 1.59 10.66 1.5 12.55-.16 22.81-.07 8.29.08 12.63-5.47Q127.35 128.4 160.51 86a1.81 1.8 18.9 0 1 1.42-.69h25.49a.4.4 0 0 1 .4.4v72.5q0 .79-.79.79" vector-effect="non-scaling-stroke"/><path fill="#fafafa" d="M46 0h152.8q22.23 2.81 35.06 19.4Q244.84 33.61 244.8 52q-.15 68.2.03 136.95.03 10.31-1.44 16.35-2.27 9.42-7.53 17.16c-1.3 1.91-2.88 3.62-4.3 5.4q-1.64 2.05-3.68 3.68c-1.88 1.5-3.62 3.12-5.64 4.47q-8.09 5.38-17.46 7.48-6.05 1.37-16.11 1.34-69.37-.18-136.12-.03-19.71.04-33.74-11.42Q2.64 220.18 0 198.69V45.76q1.42-10.1 4.33-15.97Q17.17 3.86 46 0m141.03 159h-25.54a1.24 1.24 0 0 1-1.01-.52l-12.59-17.67c-2.11-2.95-6.09-2.8-8.4-.14-3.06 3.5-5.84 6.89-3.05 10.75q5.78 7.97 11.78 16.56 4.52 6.49 12.27 6.59 13.45.16 28.3.03c7.85-.08 14.45-5.88 14.44-13.97q-.07-36.79-.03-76.89c.01-5.33-3.23-10.18-8.03-12.39q-3.27-1.5-8.94-1.43-12.29.16-24.86.02c-4.98-.05-9.27 1.69-12.29 5.55q-32.05 40.97-64.63 82.6a2.37 2.35-70.9 0 1-1.86.91H57.21q-.56 0-.56-.55l.01-72.5q0-.64.64-.64H83a.8.79 71 0 1 .63.31q6.88 8.98 13.98 19.09c1.86 2.65 5.46 3.5 7.87 1.12q2.12-2.11 4.22-5.16c.9-1.31.68-2.88.58-4.37q-.05-.68-.46-1.23-6.79-9.13-12.91-17.73c-3.28-4.61-7.25-7.36-12.73-7.34q-12.58.05-27.62-.04c-6.19-.03-11.12 2.65-13.93 8.18q-1.44 2.85-1.38 9.13.3 33.6.02 70.84-.04 4.66 1.05 7.46 2 5.18 7.05 7.65 3.26 1.59 10.66 1.5 12.55-.16 22.81-.07 8.29.08 12.63-5.47Q127.35 128.4 160.51 86a1.81 1.8 18.9 0 1 1.42-.69h25.49a.4.4 0 0 1 .4.4v72.5q0 .79-.79.79"/><path fill="#242424" d="M187.82 158.21v-72.5a.4.4 0 0 0-.4-.4h-25.49a1.81 1.8 18.9 0 0-1.42.69q-33.16 42.4-65.04 83.18-4.34 5.55-12.63 5.47-10.26-.09-22.81.07-7.4.09-10.66-1.5-5.05-2.47-7.05-7.65-1.09-2.8-1.05-7.46.28-37.24-.02-70.84-.06-6.28 1.38-9.13c2.81-5.53 7.74-8.21 13.93-8.18q15.04.09 27.62.04c5.48-.02 9.45 2.73 12.73 7.34q6.12 8.6 12.91 17.73.41.55.46 1.23c.1 1.49.32 3.06-.58 4.37q-2.1 3.05-4.22 5.16c-2.41 2.38-6.01 1.53-7.87-1.12q-7.1-10.11-13.98-19.09a.8.79 71 0 0-.63-.31H57.3q-.64 0-.64.64l-.01 72.5q0 .55.56.55h25.38a2.37 2.35-70.9 0 0 1.86-.91q32.58-41.63 64.63-82.6c3.02-3.86 7.31-5.6 12.29-5.55q12.57.14 24.86-.02 5.67-.07 8.94 1.43c4.8 2.21 8.04 7.06 8.03 12.39q-.04 40.1.03 76.89c.01 8.09-6.59 13.89-14.44 13.97q-14.85.13-28.3-.03-7.75-.1-12.27-6.59-6-8.59-11.78-16.56c-2.79-3.86-.01-7.25 3.05-10.75 2.31-2.66 6.29-2.81 8.4.14l12.59 17.67a1.24 1.24 0 0 0 1.01.52h25.54q.79 0 .79-.79"/></svg>

<svg xmlns="http://www.w3.org/2000/svg" version="1.1" viewBox="0.00 0.00 245.00 245.00">
<path stroke="#919393" stroke-width="2.00" fill="none" stroke-linecap="butt" vector-effect="non-scaling-stroke" d="   M 187.03 159.00   L 161.49 159.00   A 1.24 1.24 0.0 0 1 160.48 158.48   Q 153.96 149.33 147.89 140.81   C 145.78 137.86 141.80 138.01 139.49 140.67   C 136.43 144.17 133.65 147.56 136.44 151.42   Q 142.22 159.39 148.22 167.98   Q 152.74 174.47 160.49 174.57   Q 173.94 174.73 188.79 174.60   C 196.64 174.52 203.24 168.72 203.23 160.63   Q 203.16 123.84 203.20 83.74   C 203.21 78.41 199.97 73.56 195.17 71.35   Q 191.90 69.85 186.23 69.92   Q 173.94 70.08 161.37 69.94   C 156.39 69.89 152.10 71.63 149.08 75.49   Q 117.03 116.46 84.45 158.09   A 2.37 2.35 -70.9 0 1 82.59 159.00   L 57.21 159.00   Q 56.65 159.00 56.65 158.45   L 56.66 85.95   Q 56.66 85.31 57.30 85.31   L 83.00 85.31   A 0.80 0.79 71.0 0 1 83.63 85.62   Q 90.51 94.60 97.61 104.71   C 99.47 107.36 103.07 108.21 105.48 105.83   Q 107.60 103.72 109.70 100.67   C 110.60 99.36 110.38 97.79 110.28 96.30   Q 110.23 95.62 109.82 95.07   Q 103.03 85.94 96.91 77.34   C 93.63 72.73 89.66 69.98 84.18 70.00   Q 71.60 70.05 56.56 69.96   C 50.37 69.93 45.44 72.61 42.63 78.14   Q 41.19 80.99 41.25 87.27   Q 41.55 120.87 41.27 158.11   Q 41.23 162.77 42.32 165.57   Q 44.32 170.75 49.37 173.22   Q 52.63 174.81 60.03 174.72   Q 72.58 174.56 82.84 174.65   Q 91.13 174.73 95.47 169.18   Q 127.35 128.40 160.51 86.00   A 1.81 1.80 18.9 0 1 161.93 85.31   L 187.42 85.31   A 0.40 0.40 0.0 0 1 187.82 85.71   L 187.82 158.21   Q 187.82 159.00 187.03 159.00"/>
<path fill="#fafafa" d="   M 46.00 0.00   L 198.80 0.00   Q 221.03 2.81 233.86 19.40   Q 244.84 33.61 244.80 52.00   Q 244.65 120.20 244.83 188.95   Q 244.86 199.26 243.39 205.30   Q 241.12 214.72 235.86 222.46   C 234.56 224.37 232.98 226.08 231.56 227.86   Q 229.92 229.91 227.88 231.54   C 226.00 233.04 224.26 234.66 222.24 236.01   Q 214.15 241.39 204.78 243.49   Q 198.73 244.86 188.67 244.83   Q 119.30 244.65 52.55 244.80   Q 32.84 244.84 18.81 233.38   Q 2.64 220.18 0.00 198.69   L 0.00 45.76   Q 1.42 35.66 4.33 29.79   Q 17.17 3.86 46.00 0.00   Z   M 187.03 159.00   L 161.49 159.00   A 1.24 1.24 0.0 0 1 160.48 158.48   Q 153.96 149.33 147.89 140.81   C 145.78 137.86 141.80 138.01 139.49 140.67   C 136.43 144.17 133.65 147.56 136.44 151.42   Q 142.22 159.39 148.22 167.98   Q 152.74 174.47 160.49 174.57   Q 173.94 174.73 188.79 174.60   C 196.64 174.52 203.24 168.72 203.23 160.63   Q 203.16 123.84 203.20 83.74   C 203.21 78.41 199.97 73.56 195.17 71.35   Q 191.90 69.85 186.23 69.92   Q 173.94 70.08 161.37 69.94   C 156.39 69.89 152.10 71.63 149.08 75.49   Q 117.03 116.46 84.45 158.09   A 2.37 2.35 -70.9 0 1 82.59 159.00   L 57.21 159.00   Q 56.65 159.00 56.65 158.45   L 56.66 85.95   Q 56.66 85.31 57.30 85.31   L 83.00 85.31   A 0.80 0.79 71.0 0 1 83.63 85.62   Q 90.51 94.60 97.61 104.71   C 99.47 107.36 103.07 108.21 105.48 105.83   Q 107.60 103.72 109.70 100.67   C 110.60 99.36 110.38 97.79 110.28 96.30   Q 110.23 95.62 109.82 95.07   Q 103.03 85.94 96.91 77.34   C 93.63 72.73 89.66 69.98 84.18 70.00   Q 71.60 70.05 56.56 69.96   C 50.37 69.93 45.44 72.61 42.63 78.14   Q 41.19 80.99 41.25 87.27   Q 41.55 120.87 41.27 158.11   Q 41.23 162.77 42.32 165.57   Q 44.32 170.75 49.37 173.22   Q 52.63 174.81 60.03 174.72   Q 72.58 174.56 82.84 174.65   Q 91.13 174.73 95.47 169.18   Q 127.35 128.40 160.51 86.00   A 1.81 1.80 18.9 0 1 161.93 85.31   L 187.42 85.31   A 0.40 0.40 0.0 0 1 187.82 85.71   L 187.82 158.21   Q 187.82 159.00 187.03 159.00   Z"/>
<path fill="#242424" d="   M 187.82 158.21   L 187.82 85.71   A 0.40 0.40 0.0 0 0 187.42 85.31   L 161.93 85.31   A 1.81 1.80 18.9 0 0 160.51 86.00   Q 127.35 128.40 95.47 169.18   Q 91.13 174.73 82.84 174.65   Q 72.58 174.56 60.03 174.72   Q 52.63 174.81 49.37 173.22   Q 44.32 170.75 42.32 165.57   Q 41.23 162.77 41.27 158.11   Q 41.55 120.87 41.25 87.27   Q 41.19 80.99 42.63 78.14   C 45.44 72.61 50.37 69.93 56.56 69.96   Q 71.60 70.05 84.18 70.00   C 89.66 69.98 93.63 72.73 96.91 77.34   Q 103.03 85.94 109.82 95.07   Q 110.23 95.62 110.28 96.30   C 110.38 97.79 110.60 99.36 109.70 100.67   Q 107.60 103.72 105.48 105.83   C 103.07 108.21 99.47 107.36 97.61 104.71   Q 90.51 94.60 83.63 85.62   A 0.80 0.79 71.0 0 0 83.00 85.31   L 57.30 85.31   Q 56.66 85.31 56.66 85.95   L 56.65 158.45   Q 56.65 159.00 57.21 159.00   L 82.59 159.00   A 2.37 2.35 -70.9 0 0 84.45 158.09   Q 117.03 116.46 149.08 75.49   C 152.10 71.63 156.39 69.89 161.37 69.94   Q 173.94 70.08 186.23 69.92   Q 191.90 69.85 195.17 71.35   C 199.97 73.56 203.21 78.41 203.20 83.74   Q 203.16 123.84 203.23 160.63   C 203.24 168.72 196.64 174.52 188.79 174.60   Q 173.94 174.73 160.49 174.57   Q 152.74 174.47 148.22 167.98   Q 142.22 159.39 136.44 151.42   C 133.65 147.56 136.43 144.17 139.49 140.67   C 141.80 138.01 145.78 137.86 147.89 140.81   Q 153.96 149.33 160.48 158.48   A 1.24 1.24 0.0 0 0 161.49 159.00   L 187.03 159.00   Q 187.82 159.00 187.82 158.21   Z"/>
</svg>
